X:1
T: Lady Madelina Sinclair's Reel
C:R. Mackintosh
R:Reel
Q: 232
K:Bb
M:4/4
L:1/8
|:d|B2 D1/2E1/2F EG FA|B1/2c1/2d1/2e1/2 fB Ac cd|Bf Af GB FB|Ec FA BB, B,d|
B2 D1/2E1/2F EG FA|B1/2c1/2d1/2e1/2 fB Ac cd|Bf Af GB FB|Ec FA BB, B,d|
d1/2c1/2B df gB fB|ec dB Ac cf|d1/2c1/2B Af eG Fd|Gc FA BB, B,f|
d1/2c1/2B df gB fB|e1/2d1/2c d1/2c1/2B Ac cd|ec GE dB FD|EG FA B1/2B1/2B B:|
